static/img/common/ico-clue-rec.svg

<svg width="20" height="21" viewBox="0 0 20 21" fill="none" xmlns="http://www.w3.org/2000/svg">
<path d="M19.3594 10.4778L6.10355 6.10352L19.3594 1.71814V10.4778Z" fill="white" stroke="currentColor" stroke-linecap="round" stroke-linejoin="round"/>
<path d="M14.8965 0.5H0.5V11.696H14.8965V0.5Z" fill="white" stroke="currentColor" stroke-linecap="round" stroke-linejoin="round"/>
<path d="M2.27187 14.099C3.08029 14.099 3.67829 14.254 4.06589 14.553C4.45349 14.852 4.64175 15.3172 4.64175 15.9262C4.64175 16.2474 4.58638 16.5242 4.46456 16.7457C4.34275 16.9672 4.18771 17.1444 3.99945 17.2884C3.81119 17.4323 3.61185 17.5431 3.40144 17.6206L5.17331 20.4334H4.07697L2.54873 17.8753H1.45238V20.4334H0.5V14.1101H2.27187V14.099ZM2.20543 14.9074H1.45238V17.0558H2.24972C2.73699 17.0558 3.09136 16.9672 3.32392 16.779C3.5454 16.5907 3.65615 16.3138 3.65615 15.9484C3.65615 15.5829 3.53433 15.3061 3.30177 15.14C3.06921 14.9849 2.70377 14.8963 2.20543 14.8963V14.9074Z" fill="#E72513"/>
<path d="M9.66944 20.4224H6.10355V14.099H9.66944V14.9185H7.067V16.7236H9.5144V17.532H7.067V19.6029H9.66944V20.4224Z" fill="#E72513"/>
<path d="M13.7447 14.83C13.1135 14.83 12.6262 15.0514 12.2719 15.4833C11.9175 15.9152 11.7403 16.5132 11.7403 17.2663C11.7403 18.0193 11.9064 18.6063 12.2386 19.0381C12.5709 19.47 13.0692 19.6805 13.7447 19.6805C14.0105 19.6805 14.2763 19.6583 14.531 19.6029C14.7857 19.5476 15.0404 19.4811 15.2951 19.4036V20.2231C15.0515 20.3228 14.7968 20.3892 14.531 20.4335C14.2652 20.4778 13.9662 20.4999 13.6229 20.4999C12.9695 20.4999 12.438 20.3671 12.0061 20.1013C11.5742 19.8355 11.253 19.459 11.0537 18.9717C10.8544 18.4844 10.7436 17.9086 10.7436 17.2552C10.7436 16.6018 10.8544 16.0592 11.098 15.5719C11.3306 15.0847 11.6739 14.7081 12.1168 14.4202C12.5709 14.1434 13.1135 13.9994 13.7669 13.9994C14.088 13.9994 14.3981 14.0326 14.6971 14.0991C14.9961 14.1655 15.284 14.2652 15.5387 14.387L15.1844 15.1843C14.974 15.0957 14.7525 15.0071 14.5199 14.9296C14.2874 14.8521 14.0327 14.8189 13.7558 14.8189L13.7447 14.83Z" fill="#E72513"/>
<path d="M6.10355 8.83878L10.3007 6.10346L6.10355 3.35706V8.83878Z" fill="white" stroke="currentColor" stroke-width="0.5" stroke-linecap="round" stroke-linejoin="round"/>
</svg>

<svg xmlns="http://www.w3.org/2000/svg" width="20" height="21" fill="none" viewBox="0 0 20 21"><path fill="#fff" stroke="currentColor" stroke-linecap="round" stroke-linejoin="round" d="M19.36 10.478 6.103 6.104l13.255-4.386z"/><path fill="#fff" stroke="currentColor" stroke-linecap="round" stroke-linejoin="round" d="M14.897.5H.5v11.196h14.397z"/><path fill="#e72513" d="M2.272 14.099c.808 0 1.406.155 1.794.454.387.299.576.764.576 1.373 0 .321-.056.598-.177.82a1.7 1.7 0 0 1-.466.542 2.3 2.3 0 0 1-.598.333l1.772 2.812H4.077l-1.528-2.558H1.452v2.558H.5V14.11h1.772zm-.067.808h-.753v2.149h.798c.487 0 .841-.089 1.074-.277q.332-.282.332-.83c0-.366-.122-.643-.354-.809-.233-.155-.598-.244-1.097-.244zM9.67 20.422H6.103V14.1h3.565v.82H7.067v1.805h2.447v.808H7.067v2.07h2.602zM13.745 14.83c-.631 0-1.119.221-1.473.653s-.532 1.03-.532 1.783.166 1.34.499 1.772.83.642 1.506.642c.266 0 .531-.022.786-.077a10 10 0 0 0 .764-.2v.82c-.243.1-.498.166-.764.21a5.5 5.5 0 0 1-.908.067c-.653 0-1.185-.133-1.617-.399a2.33 2.33 0 0 1-.952-1.13c-.2-.487-.31-1.062-.31-1.716s.11-1.196.354-1.683a2.8 2.8 0 0 1 1.019-1.152c.454-.277.996-.42 1.65-.42q.482 0 .93.1c.3.066.587.165.842.287l-.355.797a9 9 0 0 0-.664-.254 2.4 2.4 0 0 0-.764-.111z"/><path fill="#fff" stroke="currentColor" stroke-linecap="round" stroke-linejoin="round" stroke-width=".5" d="M6.104 8.839 10.3 6.103 6.104 3.357z"/></svg>
